shield-car.svg

<svg fill="currentColor" viewBox="0 0 24 24"><path d="M14.42 7.5 16 11H8l1.42-3.5zM9 12c-.55 0-1 .45-1 1s.45 1 1 1 1-.45 1-1-.45-1-1-1m6 0c-.55 0-1 .45-1 1s.45 1 1 1 1-.45 1-1-.45-1-1-1m6-7v6c0 5.55-3.84 10.74-9 12-5.16-1.26-9-6.45-9-12V5l9-4zm-3 7-2.16-5c-.2-.58-.76-1-1.42-1h-5C8.76 6 8.2 6.42 8 7l-2 5v4c0 .55.45 1 1 1h1c.55 0 1-.45 1-1v-1h6v1c0 .55.45 1 1 1h1c.55 0 1-.45 1-1z"/></svg>

<svg  viewBox="0 0 24 24" fill="currentColor"><path  d="M14.42 7.5L16 11H8L9.42 7.5H14.42M9 12C8.45 12 8 12.45 8 13S8.45 14 9 14 10 13.55 10 13 9.55 12 9 12M15 12C14.45 12 14 12.45 14 13S14.45 14 15 14 16 13.55 16 13 15.55 12 15 12M21 5V11C21 16.55 17.16 21.74 12 23C6.84 21.74 3 16.55 3 11V5L12 1L21 5M18 12L15.84 7C15.64 6.42 15.08 6 14.42 6H9.42C8.76 6 8.2 6.42 8 7L6 12V16C6 16.55 6.45 17 7 17H8C8.55 17 9 16.55 9 16V15H15V16C15 16.55 15.45 17 16 17H17C17.55 17 18 16.55 18 16V12Z"/></svg>
